!!!OTL: Yangque ti
!!!ARE: Asia, China,ÿHunan Yiyang
!! I, 496
!!!SCT: C2176
!!!YEM: Copyright 1995, estate of Helmut Schaffrath.
**kern
*ICvox
*Ivox
*M2/4
*k[f#c#]
*D:
{8dd
16a
16a
16a
16b
8dd
=1
16a
8a
16f#
4e
=2
8dd
16dd
16dd
16a
16b
8dd
=3
16a
8a
16f#
4e}
=4
{8a
4a
8b
=5
8.dd
16ff#
8dd
8dd
=6
8a
16f#
16a
8dd
8f#
=7
8a
8a
16f#
16a
16dd
16dd
=8
8.a
16f#
4e}
=9
{8dd
16dd
16f#
8e
16e
16f#
=10
8.dd
16f#
4a
=11
8dd
16dd
16f#
8e
16e
16f#
=12
8.dd
16f#
4a}
=13
{16f#
16a
16dd
16dd
4a
=14
16f#
16a
16dd
16dd
4a}
=15
{8a
4a
8b
=16
8.dd
16ff#
8dd
8dd
=17
8a
16f#
16a
8dd
8f#
=18
8a
8a
16f#
16a
16dd
16dd
=19
8.a
16f#
4e}
==
!!!AGN: Xiaodiao, Dengdiao
!!!ONB: ESAC (Essen Associative Code) Database: SENGANSU
!!!AMT: simple duple
!!!AIN: vox
!!!EED: Helmut Schaffrath
!!!EEV: 1.0
*-
